launcher/android/assets/skins/day/svg/mapGiga2.svg

<svg enable-background="new 0 0 258.00 258.00" height="258" viewBox="0 0 258 258" width="258" xmlns="http://www.w3.org/2000/svg" xmlns:xlink="http://www.w3.org/1999/xlink"><linearGradient id="a" gradientTransform="matrix(0 -1 1 0 -.581108 1.581108)" gradientUnits="objectBoundingBox" x1=".5" x2="1.66222" y1="1.08111" y2="1.08111"><stop offset="0" stop-color="#abc4ab"/><stop offset=".771552" stop-color="#d5e1d5"/><stop offset="1" stop-color="#fff"/></linearGradient><path d="m44 4h170c22.091 0 40 17.9086 40 39.9999v170.0001c0 22.091-17.909 40-40 40h-170c-22.0914 0-40-17.909-40-40v-170.0001c0-22.0913 17.9086-39.9999 40-39.9999z" fill="url(#a)" stroke="#000" stroke-linecap="square" stroke-linejoin="bevel" stroke-width="8"/><g stroke-linejoin="round"><path d="m129.72 43.876c50.12 0 90.75 28.2059 90.75 63 0 14.918-7.469 28.625-19.953 39.417l-4.548 5.083-10 7-7 11.5-7 14-7.5 10.5-5-1-1.499-9-1.261-17.333c-8.526 1.841-17.591 2.833-26.989 2.833-50.12 0-90.7502-28.206-90.7502-63 0-34.7941 40.6302-63 90.7502-63z" fill="#a9090b" stroke="#000" stroke-width="5"/><path d="m100.37 119.039c0 5.672-1.6194 10.065-4.8593 13.179-3.2397 3.114-7.931 4.671-14.0741 4.671-4.0585 0-7.2756-.55-9.6511-1.65v-7.455c3.1006 1.618 6.2271 2.428 9.3794 2.428 3.1394 0 5.5718-.89 7.2966-2.67 1.7251-1.78 2.5878-4.2 2.5878-7.261v-2.561h-.1166c-2.1555 3.472-5.3337 5.207-9.5348 5.207-3.8968 0-6.9908-1.351-9.2823-4.054s-3.4373-6.328-3.4373-10.874c0-5.097 1.2737-9.1434 3.8207-12.1406 2.5473-2.9972 5.9019-4.4957 10.0641-4.4957 3.7221 0 6.5087 1.4607 8.3599 4.3819h.1263v-3.7749h9.3207zm-9.2041-11.315v-2.333c0-1.866-.5569-3.456-1.6702-4.771-1.1134-1.3154-2.56-1.9731-4.3401-1.9731-2.0326 0-3.6298.7872-4.7917 2.3621-1.1619 1.574-1.7429 3.793-1.7429 6.658 0 2.453.5519 4.396 1.6555 5.828 1.1035 1.432 2.6135 2.148 4.5295 2.148 1.8966 0 3.4307-.725 4.6023-2.176 1.1717-1.451 1.7576-3.366 1.7576-5.743z" fill="#e4e4e1" stroke="#fff" stroke-width="2"/><path d="m113.731 87.1136c-1.547 0-2.814-.4726-3.801-1.4179s-1.481-2.1072-1.481-3.4856c0-1.4101.494-2.564 1.481-3.4619.987-.898 2.254-1.3468 3.801-1.3468 1.566 0 2.838.4488 3.816 1.3468.977.8979 1.466 2.0518 1.466 3.4619 0 1.4353-.489 2.6113-1.466 3.5283-.978.9168-2.25 1.3752-3.816 1.3752zm4.661 35.2064h-9.322v-30.3503h9.322z" fill="#e4e4e1" stroke="#fff" stroke-width="2"/><path d="m156.298 119.039c0 5.672-1.62 10.065-4.86 13.179s-7.931 4.671-14.074 4.671c-4.059 0-7.276-.55-9.651-1.65v-7.455c3.1 1.618 6.227 2.428 9.379 2.428 3.14 0 5.572-.89 7.297-2.67s2.588-4.2 2.588-7.261v-2.561h-.117c-2.156 3.472-5.334 5.207-9.535 5.207-3.897 0-6.991-1.351-9.282-4.054-2.292-2.703-3.437-6.328-3.437-10.874 0-5.097 1.273-9.1434 3.82-12.1406 2.548-2.9972 5.902-4.4957 10.064-4.4957 3.722 0 6.509 1.4607 8.36 4.3819h.127v-3.7749h9.321zm-9.205-11.315v-2.333c0-1.866-.557-3.456-1.67-4.771-1.113-1.3154-2.56-1.9731-4.34-1.9731-2.033 0-3.63.7872-4.792 2.3621-1.162 1.574-1.743 3.793-1.743 6.658 0 2.453.552 4.396 1.656 5.828 1.103 1.432 2.613 2.148 4.529 2.148 1.897 0 3.431-.725 4.603-2.176 1.171-1.451 1.757-3.366 1.757-5.743z" fill="#e4e4e1" stroke="#fff" stroke-width="2"/><path d="m191.097 122.32h-9.321v-4.524h-.127c-2.103 3.421-5.217 5.131-9.34 5.131-3.043 0-5.436-.829-7.18-2.489-1.745-1.66-2.617-3.875-2.617-6.644 0-5.849 3.602-9.226 10.807-10.13l8.515-1.091c0-3.0219-1.855-4.5331-5.564-4.5331-3.735 0-7.285 1.0117-10.651 3.0351v-7.1325c1.353-.6829 3.206-1.2836 5.559-1.802 2.353-.5186 4.494-.7778 6.423-.7778 8.997 0 13.496 4.2998 13.496 12.8993zm-9.263-12.301v-1.982l-5.806.692c-3.211.379-4.816 1.71-4.816 3.993 0 1.031.39 1.876 1.17 2.537s1.836.991 3.17.991c1.858 0 3.369-.588 4.534-1.764s1.748-2.665 1.748-4.467z" fill="#e4e4e1" stroke="#fff" stroke-width="2"/></g></svg>

﻿<?xml version="1.0" encoding="utf-8"?>
<!DOCTYPE svg PUBLIC "-//W3C//DTD SVG 1.1//EN" "http://www.w3.org/Graphics/SVG/1.1/DTD/svg11.dtd">
<svg xmlns="http://www.w3.org/2000/svg" xmlns:xlink="http://www.w3.org/1999/xlink" version="1.1" baseProfile="full" width="258" height="258" viewBox="0 0 258.00 258.00" enable-background="new 0 0 258.00 258.00" xml:space="preserve">
	<linearGradient id="SVGID_Fill1_" gradientUnits="objectBoundingBox" x1="0.5" y1="1.08111" x2="1.66222" y2="1.08111" gradientTransform="rotate(-90.000000 0.500000 1.081108)">
		<stop offset="0" stop-color="#ABC4AB" stop-opacity="1"/>
		<stop offset="0.771552" stop-color="#D5E1D5" stop-opacity="1"/>
		<stop offset="1" stop-color="#FFFFFF" stop-opacity="1"/>
	</linearGradient>
	<path fill="url(#SVGID_Fill1_)" stroke-width="8" stroke-linecap="square" stroke-linejoin="bevel" stroke="#000000" stroke-opacity="1" d="M 44,4L 214,4C 236.091,4 254,21.9086 254,43.9999L 254,214C 254,236.091 236.091,254 214,254L 44,254C 21.9086,254 4,236.091 4,214L 4,43.9999C 4,21.9086 21.9086,4 44,4 Z "/>
	<path fill="#A9090B" fill-opacity="1" stroke-width="5" stroke-linejoin="round" stroke="#000000" stroke-opacity="1" d="M 129.72,43.876C 179.84,43.876 220.47,72.0819 220.47,106.876C 220.47,121.794 213.001,135.501 200.517,146.293L 195.969,151.376L 185.969,158.376L 178.969,169.876L 171.969,183.876L 164.469,194.376L 159.469,193.376L 157.97,184.376L 156.709,167.043C 148.183,168.884 139.118,169.876 129.72,169.876C 79.6,169.876 38.9698,141.67 38.9698,106.876C 38.9698,72.0819 79.6,43.876 129.72,43.876 Z "/>
	<g>
		<path fill="#E4E4E1" fill-opacity="1" stroke-width="2" stroke-linejoin="round" stroke="#FFFFFF" stroke-opacity="1" d="M 100.37,119.039C 100.37,124.711 98.7506,129.104 95.5107,132.218C 92.271,135.332 87.5797,136.889 81.4366,136.889C 77.3781,136.889 74.161,136.339 71.7855,135.239L 71.7855,127.784C 74.8861,129.402 78.0126,130.212 81.1649,130.212C 84.3043,130.212 86.7367,129.322 88.4615,127.542C 90.1866,125.762 91.0493,123.342 91.0493,120.281L 91.0493,117.72L 90.9327,117.72C 88.7772,121.192 85.599,122.927 81.3979,122.927C 77.5011,122.927 74.4071,121.576 72.1156,118.873C 69.8241,116.17 68.6783,112.545 68.6783,107.999C 68.6783,102.902 69.952,98.8556 72.499,95.8584C 75.0463,92.8612 78.4009,91.3627 82.5631,91.3627C 86.2852,91.3627 89.0718,92.8234 90.923,95.7446L 91.0493,95.7446L 91.0493,91.9697L 100.37,91.9697L 100.37,119.039 Z M 91.1659,107.724L 91.1659,105.391C 91.1659,103.525 90.609,101.935 89.4957,100.62C 88.3823,99.3046 86.9357,98.6469 85.1556,98.6469C 83.123,98.6469 81.5258,99.4341 80.3639,101.009C 79.202,102.583 78.621,104.802 78.621,107.667C 78.621,110.12 79.1729,112.063 80.2765,113.495C 81.38,114.927 82.89,115.643 84.806,115.643C 86.7026,115.643 88.2367,114.918 89.4083,113.467C 90.58,112.016 91.1659,110.101 91.1659,107.724 Z "/>
		<path fill="#E4E4E1" fill-opacity="1" stroke-width="2" stroke-linejoin="round" stroke="#FFFFFF" stroke-opacity="1" d="M 113.731,87.1136C 112.184,87.1136 110.917,86.641 109.93,85.6957C 108.943,84.7504 108.449,83.5885 108.449,82.2101C 108.449,80.8 108.943,79.6461 109.93,78.7482C 110.917,77.8502 112.184,77.4014 113.731,77.4014C 115.297,77.4014 116.569,77.8502 117.547,78.7482C 118.524,79.6461 119.013,80.8 119.013,82.2101C 119.013,83.6454 118.524,84.8214 117.547,85.7384C 116.569,86.6552 115.297,87.1136 113.731,87.1136 Z M 118.392,122.32L 109.07,122.32L 109.07,91.9697L 118.392,91.9697L 118.392,122.32 Z "/>
		<path fill="#E4E4E1" fill-opacity="1" stroke-width="2" stroke-linejoin="round" stroke="#FFFFFF" stroke-opacity="1" d="M 156.298,119.039C 156.298,124.711 154.678,129.104 151.438,132.218C 148.198,135.332 143.507,136.889 137.364,136.889C 133.305,136.889 130.088,136.339 127.713,135.239L 127.713,127.784C 130.813,129.402 133.94,130.212 137.092,130.212C 140.232,130.212 142.664,129.322 144.389,127.542C 146.114,125.762 146.977,123.342 146.977,120.281L 146.977,117.72L 146.86,117.72C 144.704,121.192 141.526,122.927 137.325,122.927C 133.428,122.927 130.334,121.576 128.043,118.873C 125.751,116.17 124.606,112.545 124.606,107.999C 124.606,102.902 125.879,98.8556 128.426,95.8584C 130.974,92.8612 134.328,91.3627 138.49,91.3627C 142.212,91.3627 144.999,92.8234 146.85,95.7446L 146.977,95.7446L 146.977,91.9697L 156.298,91.9697L 156.298,119.039 Z M 147.093,107.724L 147.093,105.391C 147.093,103.525 146.536,101.935 145.423,100.62C 144.31,99.3046 142.863,98.6469 141.083,98.6469C 139.05,98.6469 137.453,99.4341 136.291,101.009C 135.129,102.583 134.548,104.802 134.548,107.667C 134.548,110.12 135.1,112.063 136.204,113.495C 137.307,114.927 138.817,115.643 140.733,115.643C 142.63,115.643 144.164,114.918 145.336,113.467C 146.507,112.016 147.093,110.101 147.093,107.724 Z "/>
		<path fill="#E4E4E1" fill-opacity="1" stroke-width="2" stroke-linejoin="round" stroke="#FFFFFF" stroke-opacity="1" d="M 191.097,122.32L 181.776,122.32L 181.776,117.796L 181.649,117.796C 179.546,121.217 176.432,122.927 172.309,122.927C 169.266,122.927 166.873,122.098 165.129,120.438C 163.384,118.778 162.512,116.563 162.512,113.794C 162.512,107.945 166.114,104.568 173.319,103.664L 181.834,102.573C 181.834,99.5511 179.979,98.0399 176.27,98.0399C 172.535,98.0399 168.985,99.0516 165.619,101.075L 165.619,93.9425C 166.972,93.2596 168.825,92.6589 171.178,92.1405C 173.531,91.6219 175.672,91.3627 177.601,91.3627C 186.598,91.3627 191.097,95.6625 191.097,104.262L 191.097,122.32 Z M 181.834,110.019L 181.834,108.037L 176.028,108.729C 172.817,109.108 171.212,110.439 171.212,112.722C 171.212,113.753 171.602,114.598 172.382,115.259C 173.162,115.92 174.218,116.25 175.552,116.25C 177.41,116.25 178.921,115.662 180.086,114.486C 181.251,113.31 181.834,111.821 181.834,110.019 Z "/>
	</g>
</svg>
